X:1
T: Schehallion
C:
R:Strathspey
Q: 128
K:Am
M:4/4
L:1/16
|:G2|EA3 A3B c3A A4|BG3 G3c BcdB GB3|c3A B3G AAA2 c4|g3e edcB cA3 A2G2|
EA3 A3B c3A A4|BG3 G3c BcdB GB3|c3A B3G AAA2 c4|g3e edcB cA3 A2:|
|:B2|ccc2 c3d cdef g4|GG3 d3c BcdB G3B|ccc2 c3d cdef g3a|g3e edcB cA3 A3B|
ccc2 c3d cdef g4|GG3 d3c BcdB G3B|c3A BG3 FFF2 c4|g3e edcB cA3 A2:|
